X:1
T:The Twa Emperors
M:6/8
L:1/8
K:F
 F| FFF A2 A/2A/2| AcA G2 c| AAG AGG| A F2 F2 C/2C/2| FFF A2 A/2A/2|\
 cAA G2 f/2d/2| cAG AG G/2G/2| A F2 F2 f| ddd ddd| ddf d2 c| Acc ccc|\
 dcc c2 A| BBB B2 A/2A/2| cAA G2 c| AFA ABA| A F2 F2||

